svg/pagerduty.svg

<?xml version="1.0" encoding="UTF-8"?>
<svg xmlns="http://www.w3.org/2000/svg" xmlns:xlink="http://www.w3.org/1999/xlink" width="36.570999" height="32" viewBox="0 0 36.570999 32">
<path fill-rule="nonzero" fill="rgb(14.509805%, 75.686276%, 31.764707%)" fill-opacity="1" d="M 3.832031 31.105469 L 0 31.105469 L 0 11.875 C 0 9.902344 0.808594 8.707031 1.488281 8.046875 C 2.992188 6.570312 5.03125 6.527344 5.363281 6.527344 L 11.390625 6.527344 C 13.542969 6.527344 14.777344 7.398438 15.457031 8.128906 C 16.796875 9.585938 16.8125 11.472656 16.78125 11.972656 L 16.78125 19.222656 C 16.78125 21.316406 15.925781 22.554688 15.21875 23.214844 C 13.761719 24.585938 11.832031 24.617188 11.375 24.601562 L 3.832031 24.601562 Z M 11.523438 20.761719 C 11.726562 20.761719 12.304688 20.703125 12.613281 20.40625 C 12.847656 20.1875 12.96875 19.789062 12.96875 19.207031 L 12.96875 11.765625 C 12.96875 11.5625 12.921875 11.015625 12.628906 10.707031 C 12.34375 10.410156 11.804688 10.351562 11.390625 10.351562 L 5.332031 10.351562 C 3.832031 10.351562 3.832031 11.484375 3.832031 11.871094 L 3.832031 20.753906 Z M 32.742188 0 L 36.570312 0 L 36.570312 19.242188 C 36.570312 21.21875 35.761719 22.410156 35.082031 23.074219 C 33.582031 24.550781 31.539062 24.59375 31.207031 24.59375 L 25.183594 24.59375 C 23.03125 24.59375 21.792969 23.722656 21.113281 22.992188 C 19.773438 21.535156 19.757812 19.648438 19.789062 19.148438 L 19.789062 11.90625 C 19.789062 9.8125 20.644531 8.578125 21.351562 7.914062 C 22.808594 6.542969 24.738281 6.515625 25.195312 6.527344 L 32.742188 6.527344 Z M 25.050781 10.351562 C 24.84375 10.351562 24.269531 10.410156 23.957031 10.707031 C 23.722656 10.929688 23.605469 11.324219 23.605469 11.90625 L 23.605469 19.347656 C 23.605469 19.550781 23.648438 20.097656 23.945312 20.40625 C 24.230469 20.703125 24.769531 20.761719 25.179688 20.761719 L 31.238281 20.761719 C 32.753906 20.746094 32.753906 19.621094 32.753906 19.230469 L 32.753906 10.351562 Z M 25.050781 10.351562 "/>
</svg>

<svg role="img" viewBox="0 0 36.571 32" xmlns="http://www.w3.org/2000/svg"><path d="M3.832 31.105H0v-19.23c0-1.973.809-3.168 1.488-3.828 1.504-1.477 3.543-1.52 3.875-1.52h6.028c2.152 0 3.386.871 4.066 1.602 1.34 1.457 1.355 3.344 1.324 3.844v7.25c0 2.093-.855 3.332-1.562 3.992-1.457 1.37-3.387 1.402-3.844 1.387H3.832Zm7.691-10.343c.204 0 .782-.059 1.09-.356q.354-.326.356-1.199v-7.441c0-.203-.047-.75-.34-1.059-.285-.297-.824-.355-1.238-.355H5.332c-1.5 0-1.5 1.132-1.5 1.52v8.882ZM32.743 0h3.827v19.242c0 1.977-.808 3.168-1.488 3.832-1.5 1.477-3.543 1.52-3.875 1.52h-6.023c-2.153 0-3.391-.871-4.07-1.602-1.34-1.457-1.356-3.344-1.325-3.844v-7.242c0-2.094.856-3.328 1.563-3.992 1.457-1.371 3.386-1.398 3.843-1.387h7.547ZM25.05 10.352c-.207 0-.781.058-1.094.355-.234.223-.352.617-.352 1.2v7.44c0 .204.043.75.34 1.06.285.296.825.355 1.235.355h6.058c1.516-.016 1.516-1.14 1.516-1.532v-8.878Zm0 0" fill="rgb(14.509805%, 75.686276%, 31.764707%)"/></svg>
